dist/img/planet-2.svg

<svg width="52" height="53" viewBox="0 0 52 53" fill="none" xmlns="http://www.w3.org/2000/svg">
<path fill-rule="evenodd" clip-rule="evenodd" d="M8.42215 3.71426H3.55562C3.19959 3.71426 2.91528 3.42739 2.91528 3.07393C2.91528 2.72021 3.19959 2.43359 3.55562 2.43359H8.42215C8.77562 2.43359 9.06249 2.72021 9.06249 3.07393C9.06249 3.42739 8.77562 3.71426 8.42215 3.71426Z" fill="#33A853"/>
<path fill-rule="evenodd" clip-rule="evenodd" d="M5.98897 6.14874C5.6355 6.14874 5.34863 5.86187 5.34863 5.50841V0.640334C5.34863 0.286613 5.6355 0 5.98897 0C6.34243 0 6.6293 0.286613 6.6293 0.640334V5.50841C6.6293 5.86187 6.34243 6.14874 5.98897 6.14874Z" fill="#33A853"/>
<path fill-rule="evenodd" clip-rule="evenodd" d="M48.4252 46.7504C47.2009 46.7504 46.2045 47.7475 46.2045 48.9734C46.2045 50.1992 47.2009 51.1966 48.4252 51.1966C49.6521 51.1966 50.651 50.1992 50.651 48.9734C50.651 47.7475 49.6521 46.7504 48.4252 46.7504ZM48.4252 52.4773C46.4939 52.4773 44.9238 50.9054 44.9238 48.9734C44.9238 47.0414 46.4939 45.4697 48.4252 45.4697C50.359 45.4697 51.9316 47.0414 51.9316 48.9734C51.9316 50.9054 50.359 52.4773 48.4252 52.4773Z" fill="black"/>
<path fill-rule="evenodd" clip-rule="evenodd" d="M46.4375 8.9149C46.4375 10.1687 45.4206 11.1853 44.1681 11.1853C42.9131 11.1853 41.8962 10.1687 41.8962 8.9149C41.8962 7.66087 42.9131 6.64453 44.1681 6.64453C45.4206 6.64453 46.4375 7.66087 46.4375 8.9149Z" fill="black"/>
<path fill-rule="evenodd" clip-rule="evenodd" d="M26.3054 6.14883C14.4618 6.14883 4.82608 15.7843 4.82608 27.6282C4.82608 39.4723 14.4618 49.1078 26.3054 49.1078C38.1516 49.1078 47.7848 39.4723 47.7848 27.6282C47.7848 15.7843 38.1516 6.14883 26.3054 6.14883ZM26.3054 50.3885C13.7575 50.3885 3.54541 40.1782 3.54541 27.6282C3.54541 15.0782 13.7575 4.86816 26.3054 4.86816C38.856 4.86816 49.0655 15.0782 49.0655 27.6282C49.0655 40.1782 38.856 50.3885 26.3054 50.3885Z" fill="black"/>
<circle cx="26.3997" cy="27.7708" r="21.5745" fill="#33A853"/>
<path fill-rule="evenodd" clip-rule="evenodd" d="M41.9833 38.9358C41.9167 38.9358 41.8501 38.9256 41.7836 38.9043C41.448 38.795 41.2636 38.4338 41.3737 38.0972C42.6262 34.2412 42.8977 29.7391 42.1575 25.0782C41.0894 18.344 37.6803 12.5592 32.7984 9.20717C32.5064 9.00688 32.4321 8.60833 32.6319 8.3166C32.8342 8.02537 33.2313 7.95161 33.5232 8.15139C38.692 11.7017 42.3009 17.7982 43.4228 24.8779C44.1938 29.7373 43.9043 34.4453 42.5904 38.493C42.5033 38.7637 42.2523 38.9358 41.9833 38.9358Z" fill="black"/>
<path fill-rule="evenodd" clip-rule="evenodd" d="M31.9713 49.6134C31.6741 49.6134 31.4103 49.4077 31.3463 49.107C31.272 48.7609 31.4923 48.4208 31.8381 48.3468C33.275 48.0389 34.2355 45.6387 34.4737 41.7611C34.7247 37.6763 34.1714 32.1937 32.9164 26.3234C31.6485 20.409 30.0631 15.7935 28.0678 12.213C27.8962 11.9041 28.0063 11.5143 28.3137 11.3419C28.6236 11.1698 29.0129 11.2804 29.1845 11.5893C31.2464 15.2828 32.8754 20.0146 34.1689 26.0552C35.447 32.0359 36.0105 37.6417 35.7543 41.8397C35.47 46.466 34.2073 49.1492 32.1044 49.599C32.0609 49.6087 32.0148 49.6134 31.9713 49.6134Z" fill="black"/>
<path fill-rule="evenodd" clip-rule="evenodd" d="M13.7909 41.8715C13.5655 41.8715 13.3478 41.7522 13.23 41.5408C11.0144 37.5288 9.84131 32.7178 9.84131 27.6279C9.84131 21.5414 11.5344 15.8238 14.608 11.5286C14.8129 11.2408 15.2124 11.1747 15.5019 11.3803C15.7887 11.5863 15.8553 11.9864 15.6479 12.2737C12.7305 16.3534 11.122 21.8065 11.122 27.6279C11.122 32.5019 12.2387 37.0985 14.3518 40.9215C14.5234 41.2309 14.4107 41.6205 14.1008 41.7916C14.0035 41.8456 13.8959 41.8715 13.7909 41.8715Z" fill="black"/>
<path fill-rule="evenodd" clip-rule="evenodd" d="M30.5803 49.8829C28.0574 49.8829 25.5268 47.7319 23.4034 43.7642C21.2468 39.7331 19.7228 34.2532 19.1132 28.3329C18.5266 22.6288 18.7572 17.8488 19.815 13.72C19.9021 13.3773 20.2504 13.1708 20.5936 13.2584C20.9368 13.3463 21.1418 13.6949 21.0547 14.0376C20.0353 18.0174 19.8175 22.6506 20.3887 28.202C20.9804 33.9601 22.4532 39.2724 24.533 43.1602C26.4924 46.8229 28.813 48.8041 30.903 48.5856C31.2565 48.5503 31.569 48.8056 31.6048 49.1571C31.6407 49.5087 31.3845 49.8235 31.0336 49.8596C30.8825 49.8753 30.7314 49.8829 30.5803 49.8829Z" fill="black"/>
<path fill-rule="evenodd" clip-rule="evenodd" d="M21.0446 17.6082C19.2644 17.6082 17.5868 17.3331 16.1498 16.7932C13.8242 15.919 12.3821 14.45 12.0927 12.6574C11.9108 11.5258 12.2156 10.3399 12.9738 9.22799C13.1736 8.93574 13.5706 8.86044 13.8626 9.05971C14.1546 9.25898 14.2314 9.65727 14.0316 9.94952C13.4528 10.7976 13.2274 11.64 13.358 12.4535C13.5706 13.7733 14.7232 14.8888 16.6006 15.5942C18.601 16.3459 21.1419 16.5273 23.757 16.1059C28.9412 15.2704 32.9368 12.1861 32.4835 9.37092C32.2965 8.20346 31.3437 7.1715 29.8043 6.46457C29.4842 6.31703 29.3433 5.93668 29.4893 5.61548C29.6378 5.29429 30.0169 5.15316 30.3396 5.3007C32.2786 6.19153 33.4901 7.56466 33.7488 9.16703C34.3328 12.7882 30.0323 16.3918 23.9619 17.3705C22.9758 17.5295 21.9948 17.6082 21.0446 17.6082Z" fill="black"/>
<path fill-rule="evenodd" clip-rule="evenodd" d="M20.9676 29.0668C12.7201 29.0668 6.28094 25.6989 5.4357 20.46C5.35886 19.9836 5.33325 19.4944 5.3563 19.0069C5.37423 18.6537 5.68159 18.3799 6.02993 18.3999C6.3834 18.4178 6.6549 18.7185 6.63697 19.0717C6.61648 19.4695 6.63697 19.868 6.701 20.2563C7.58466 25.7512 16.2215 28.9454 25.9494 27.3779C35.8106 25.7881 43.1155 20.0312 42.2318 14.5453C42.0526 13.4401 41.2893 12.3928 40.7309 11.7012C40.5081 11.4261 40.5516 11.023 40.8257 10.8007C41.0997 10.5781 41.5044 10.6211 41.7273 10.8962C42.3778 11.7015 43.2692 12.935 43.4946 14.3415C43.9889 17.4046 42.4086 20.5855 39.0481 23.2984C35.7875 25.9295 31.2079 27.8274 26.1518 28.6419C24.3717 28.929 22.6325 29.0668 20.9676 29.0668Z" fill="black"/>
<path fill-rule="evenodd" clip-rule="evenodd" d="M21.3467 39.4769C13.3783 39.4769 6.73424 36.9675 4.17035 32.6773C3.98849 32.3738 4.08582 31.9806 4.39062 31.7993C4.69542 31.6179 5.0873 31.7165 5.26916 32.0201C8.19677 36.9176 17.602 39.2981 27.6373 37.6816C33.4182 36.7501 38.6536 34.6572 42.3829 31.7885C46.0046 29.0015 47.7387 25.8396 47.2623 22.8851C47.2059 22.5359 47.4441 22.2071 47.7925 22.151C48.1434 22.0941 48.4712 22.3321 48.525 22.6812C49.0808 26.1216 47.1752 29.7164 43.1641 32.8033C39.2683 35.7996 33.8281 37.9811 27.8422 38.9459C25.619 39.3042 23.4367 39.4769 21.3467 39.4769Z" fill="black"/>
<path fill-rule="evenodd" clip-rule="evenodd" d="M23.6108 46.5244C22.8322 46.5244 22.0407 46.4986 21.2391 46.4471C20.8856 46.4243 20.6192 46.1197 20.6423 45.7668C20.6653 45.4143 20.9675 45.151 21.321 45.169C23.8234 45.3306 26.2183 45.2304 28.4364 44.8731C31.469 44.3842 34.7501 43.3763 37.921 41.9583C38.2438 41.8139 38.6228 41.9586 38.7663 42.2813C38.9123 42.6043 38.7663 42.9831 38.4435 43.1273C35.1702 44.5904 31.7815 45.6313 28.6387 46.1372C27.0405 46.3951 25.3577 46.5244 23.6108 46.5244Z" fill="black"/>
<path fill-rule="evenodd" clip-rule="evenodd" d="M23.8287 6.42369C23.3753 6.42369 22.9015 6.46288 22.4276 6.54151C21.2648 6.7354 20.1762 7.15853 19.4411 7.70256C18.8264 8.15617 18.5113 8.64334 18.5779 9.03855C18.7214 9.89071 20.6526 10.5477 23.0295 10.1517C25.4065 9.75547 27.0227 8.50656 26.8792 7.65441C26.8152 7.25894 26.3593 6.90035 25.6319 6.67034C25.1119 6.50693 24.4921 6.42369 23.8287 6.42369ZM21.5901 11.5561C19.2874 11.5561 17.5534 10.6742 17.3152 9.24935C17.1641 8.34904 17.6482 7.43388 18.6804 6.67239C19.5845 6.00286 20.8422 5.50775 22.2176 5.27851C23.593 5.04902 24.9429 5.10947 26.0161 5.4491C27.2378 5.83484 27.9934 6.5433 28.1445 7.44387C28.434 9.193 26.326 10.9001 23.2396 11.415C22.6684 11.5102 22.1151 11.5561 21.5901 11.5561Z" fill="black"/>
<path fill-rule="evenodd" clip-rule="evenodd" d="M3.55826 48.9936C2.22892 48.9939 1.20695 48.6358 0.587109 47.8497C-0.573176 46.378 -0.012244 43.8323 2.2571 40.2843C2.44664 39.9862 2.84365 39.8993 3.14076 40.0896C3.43788 40.2802 3.52496 40.6762 3.33542 40.9741C1.47333 43.8845 0.83812 46.1014 1.59371 47.0567C3.59924 49.6014 15.5402 44.7848 29.4636 33.8034C43.387 22.8219 50.8559 12.333 48.8478 9.78776C48.2638 9.046 46.7168 8.93535 44.4961 9.47682C44.1529 9.5616 43.8045 9.35003 43.7226 9.0063C43.638 8.66282 43.8481 8.31627 44.1913 8.23252C47.0088 7.54608 48.9144 7.80273 49.8544 8.99477C53.1252 13.1431 42.1986 25.3909 30.2576 34.8089C20.5783 42.4417 9.24698 48.9931 3.55826 48.9936Z" fill="black"/>
</svg>

<svg width="52" height="53" fill="none" xmlns="http://www.w3.org/2000/svg"><path fill-rule="evenodd" clip-rule="evenodd" d="M8.422 3.714H3.556a.639.639 0 01-.64-.64c0-.354.284-.64.64-.64h4.866a.64.64 0 010 1.28z" fill="#33A853"/><path fill-rule="evenodd" clip-rule="evenodd" d="M5.989 6.149a.64.64 0 01-.64-.64V.64a.64.64 0 011.28 0v4.868a.64.64 0 01-.64.64z" fill="#33A853"/><path fill-rule="evenodd" clip-rule="evenodd" d="M48.425 46.75a2.225 2.225 0 000 4.447 2.227 2.227 0 002.226-2.224 2.227 2.227 0 00-2.226-2.223zm0 5.727a3.506 3.506 0 01-3.501-3.504 3.506 3.506 0 013.501-3.503 3.509 3.509 0 013.507 3.503 3.509 3.509 0 01-3.507 3.504zM46.438 8.915a2.27 2.27 0 11-4.542 0 2.27 2.27 0 014.541 0z" fill="#000"/><path fill-rule="evenodd" clip-rule="evenodd" d="M26.305 6.149c-11.843 0-21.479 9.635-21.479 21.48 0 11.843 9.636 21.479 21.48 21.479 11.846 0 21.479-9.636 21.479-21.48 0-11.844-9.633-21.48-21.48-21.48zm0 44.24c-12.547 0-22.76-10.21-22.76-22.76s10.213-22.76 22.76-22.76c12.551 0 22.76 10.21 22.76 22.76s-10.209 22.76-22.76 22.76z" fill="#000"/><circle cx="26.4" cy="27.771" r="21.575" fill="#33A853"/><path fill-rule="evenodd" clip-rule="evenodd" d="M41.983 38.936a.64.64 0 01-.61-.839c1.253-3.856 1.525-8.358.784-13.019-1.068-6.734-4.477-12.519-9.359-15.87a.64.64 0 11.725-1.057c5.169 3.55 8.778 9.647 9.9 16.727.77 4.86.481 9.567-.833 13.615a.639.639 0 01-.607.443zM31.971 49.613a.64.64 0 01-.133-1.267c1.437-.307 2.398-2.707 2.636-6.585.25-4.085-.303-9.567-1.558-15.438-1.267-5.914-2.853-10.53-4.848-14.11a.64.64 0 111.117-.624c2.061 3.694 3.69 8.426 4.984 14.466 1.278 5.98 1.842 11.587 1.585 15.785-.284 4.626-1.547 7.31-3.65 7.759a.621.621 0 01-.133.014zM13.79 41.871a.641.641 0 01-.56-.33c-2.216-4.012-3.389-8.823-3.389-13.913 0-6.087 1.693-11.804 4.767-16.1a.64.64 0 111.04.746c-2.918 4.08-4.526 9.533-4.526 15.354 0 4.874 1.117 9.47 3.23 13.294a.64.64 0 01-.561.95z" fill="#000"/><path fill-rule="evenodd" clip-rule="evenodd" d="M30.58 49.883c-2.523 0-5.053-2.151-7.177-6.119-2.156-4.03-3.68-9.51-4.29-15.431-.586-5.704-.356-10.484.702-14.613a.64.64 0 111.24.318c-1.02 3.98-1.238 8.613-.666 14.164.591 5.758 2.064 11.07 4.144 14.958 1.96 3.663 4.28 5.644 6.37 5.426a.64.64 0 11.13 1.274 4.383 4.383 0 01-.453.023z" fill="#000"/><path fill-rule="evenodd" clip-rule="evenodd" d="M21.045 17.608c-1.78 0-3.458-.275-4.895-.815-2.326-.874-3.768-2.343-4.057-4.136-.182-1.131.123-2.317.88-3.429a.64.64 0 111.059.722c-.58.848-.805 1.69-.674 2.504.213 1.32 1.365 2.435 3.243 3.14 2 .752 4.54.933 7.156.512 5.184-.836 9.18-3.92 8.726-6.735-.186-1.168-1.14-2.2-2.679-2.906A.642.642 0 0130.34 5.3c1.94.89 3.151 2.264 3.41 3.866.584 3.621-3.717 7.225-9.787 8.204a18.38 18.38 0 01-2.917.237z" fill="#000"/><path fill-rule="evenodd" clip-rule="evenodd" d="M20.968 29.067c-8.248 0-14.687-3.368-15.532-8.607a7.054 7.054 0 01-.08-1.453.64.64 0 111.28.065c-.02.398.001.796.065 1.184.884 5.495 9.52 8.69 19.248 7.122 9.862-1.59 17.166-7.347 16.283-12.833-.18-1.105-.943-2.152-1.501-2.844a.64.64 0 11.996-.805c.65.805 1.542 2.039 1.768 3.445.494 3.064-1.086 6.245-4.447 8.957-3.26 2.632-7.84 4.53-12.896 5.344a32.63 32.63 0 01-5.184.425z" fill="#000"/><path fill-rule="evenodd" clip-rule="evenodd" d="M21.347 39.477c-7.969 0-14.613-2.51-17.177-6.8a.64.64 0 011.099-.657c2.928 4.898 12.333 7.278 22.368 5.662 5.781-.932 11.017-3.025 14.746-5.894 3.622-2.787 5.356-5.948 4.88-8.903a.64.64 0 011.262-.204c.556 3.44-1.35 7.035-5.36 10.122-3.897 2.997-9.337 5.178-15.323 6.143a40.94 40.94 0 01-6.495.53zm2.263 7.047c-.778 0-1.57-.025-2.37-.077a.639.639 0 01-.598-.68.642.642 0 01.679-.598c2.502.162 4.897.061 7.115-.296 3.033-.489 6.314-1.497 9.485-2.915a.64.64 0 11.523 1.17c-3.274 1.462-6.663 2.503-9.805 3.01a31.602 31.602 0 01-5.028.386zm.219-40.1c-.454 0-.928.039-1.401.118-1.163.193-2.252.617-2.987 1.16-.615.454-.93.941-.863 1.337.143.852 2.075 1.509 4.451 1.113 2.378-.397 3.994-1.645 3.85-2.498-.064-.395-.52-.754-1.247-.984-.52-.163-1.14-.246-1.803-.246zm-2.239 5.132c-2.303 0-4.037-.882-4.275-2.307-.15-.9.333-1.815 1.365-2.577.904-.67 2.162-1.164 3.538-1.393 1.375-.23 2.725-.17 3.798.17 1.222.386 1.977 1.094 2.129 1.995.289 1.749-1.819 3.456-4.905 3.971a10.06 10.06 0 01-1.65.141z" fill="#000"/><path fill-rule="evenodd" clip-rule="evenodd" d="M3.558 48.994c-1.33 0-2.351-.358-2.97-1.144-1.161-1.472-.6-4.018 1.67-7.566a.64.64 0 111.077.69c-1.862 2.91-2.497 5.127-1.741 6.083 2.005 2.544 13.946-2.272 27.87-13.254 13.923-10.981 21.392-21.47 19.384-24.015-.584-.742-2.131-.853-4.352-.311a.639.639 0 01-.773-.47.639.639 0 01.468-.774c2.818-.687 4.723-.43 5.663.762 3.271 4.148-7.655 16.396-19.596 25.814-9.68 7.633-21.011 14.184-26.7 14.185z" fill="#000"/></svg>
